X:120
T: 'T Zigareweckler (1-46), S. 116f
N: K1094
O: Luxemburg
S: KINTZELE, Guillaume: An der Ucht, Bd. 1, Luxemburg 1926]
N: in der Quelle mit einer 2. Stimme versehen
R: Arbeits-, Berufslied]
M: 4/4
L: 1/16
K: C
E2F2 | G4G4G2c2B2A2 | A4G4G4
G2A2 | F4F4F2A2G2F2 | F4E4E4
C2E2 | G4G4G2e2d2c2 | d4A4A2
c2B2A2 | G6A2F4D4 | C4z4
E4GG2c | E4GGc2E4G4 | F6
F2D4F2F2 | D4F2F2E4A4 | G8z2
G2A2B2 | d2c2B2c2F3FF2
G2 | B2AAG2A2E3EE2
E2 | G4G2A2F4F2G2 | E8z2
G2A2B2 | d2c2B2c2F3FF2
G2 | B2AAG2A2E3EE2
E2 | G4G2A2F4F2G2 | E8z4

